home/modules/ROOT/images/imdg.svg

<svg fill="none" height="88" viewBox="0 0 88 88" width="88" xmlns="http://www.w3.org/2000/svg" xmlns:xlink="http://www.w3.org/1999/xlink"><clipPath id="a"><path d="m0 0h87.874v87.874h-87.874z"/></clipPath><g clip-path="url(#a)"><path d="m9.081 18.162c5.0153 0 9.081-4.0657 9.081-9.081s-4.0657-9.081-9.081-9.081-9.081 4.0657-9.081 9.081 4.0657 9.081 9.081 9.081z" fill="#0b2a35"/><path d="m32.3181 18.162c5.0153 0 9.081-4.0657 9.081-9.081s-4.0657-9.081-9.081-9.081-9.081 4.0657-9.081 9.081 4.0657 9.081 9.081 9.081z" fill="#0b2a35"/><path d="m55.5561 18.162c5.0153 0 9.081-4.0657 9.081-9.081s-4.0657-9.081-9.081-9.081-9.081 4.0657-9.081 9.081 4.0657 9.081 9.081 9.081z" fill="#2e7de1"/><path d="m78.7929 18.162c5.0153 0 9.081-4.0657 9.081-9.081s-4.0657-9.081-9.081-9.081-9.081 4.0657-9.081 9.081 4.0657 9.081 9.081 9.081z" fill="#2e7de1"/><path d="m9.081 41.399c5.0153 0 9.081-4.0657 9.081-9.081s-4.0657-9.081-9.081-9.081-9.081 4.0657-9.081 9.081 4.0657 9.081 9.081 9.081z" fill="#0b2a35"/><path d="m32.3181 41.399c5.0153 0 9.081-4.0657 9.081-9.081s-4.0657-9.081-9.081-9.081-9.081 4.0657-9.081 9.081 4.0657 9.081 9.081 9.081z" fill="#0b2a35"/><path d="m55.5561 41.399c5.0153 0 9.081-4.0657 9.081-9.081s-4.0657-9.081-9.081-9.081-9.081 4.0657-9.081 9.081 4.0657 9.081 9.081 9.081z" fill="#2e7de1"/><path d="m78.7929 41.399c5.0153 0 9.081-4.0657 9.081-9.081s-4.0657-9.081-9.081-9.081-9.081 4.0657-9.081 9.081 4.0657 9.081 9.081 9.081z" fill="#2e7de1"/><g fill="#0b2a35"><path d="m9.081 64.637c5.0153 0 9.081-4.0657 9.081-9.081s-4.0657-9.081-9.081-9.081-9.081 4.0657-9.081 9.081 4.0657 9.081 9.081 9.081z"/><path d="m32.3181 64.637c5.0153 0 9.081-4.0657 9.081-9.081s-4.0657-9.081-9.081-9.081-9.081 4.0657-9.081 9.081 4.0657 9.081 9.081 9.081z"/><path d="m55.5561 64.637c5.0153 0 9.081-4.0657 9.081-9.081s-4.0657-9.081-9.081-9.081-9.081 4.0657-9.081 9.081 4.0657 9.081 9.081 9.081z"/><path d="m78.7929 64.637c5.0153 0 9.081-4.0657 9.081-9.081s-4.0657-9.081-9.081-9.081-9.081 4.0657-9.081 9.081 4.0657 9.081 9.081 9.081z"/><path d="m9.081 87.874c5.0153 0 9.081-4.0657 9.081-9.081s-4.0657-9.081-9.081-9.081-9.081 4.0657-9.081 9.081 4.0657 9.081 9.081 9.081z"/><path d="m32.3181 87.874c5.0153 0 9.081-4.0657 9.081-9.081s-4.0657-9.081-9.081-9.081-9.081 4.0657-9.081 9.081 4.0657 9.081 9.081 9.081z"/><path d="m55.5561 87.874c5.0153 0 9.081-4.0657 9.081-9.081s-4.0657-9.081-9.081-9.081-9.081 4.0657-9.081 9.081 4.0657 9.081 9.081 9.081z"/><path d="m78.7929 87.874c5.0153 0 9.081-4.0657 9.081-9.081s-4.0657-9.081-9.081-9.081-9.081 4.0657-9.081 9.081 4.0657 9.081 9.081 9.081z"/></g></g></svg>

<svg width="88" height="88" viewBox="0 0 88 88" fill="none" xmlns="http://www.w3.org/2000/svg">
<g clip-path="url(#clip0)">
<path d="M9.081 18.162C14.0963 18.162 18.162 14.0963 18.162 9.081C18.162 4.0657 14.0963 0 9.081 0C4.0657 0 0 4.0657 0 9.081C0 14.0963 4.0657 18.162 9.081 18.162Z" fill="#0B2A35"/>
<path d="M32.3181 18.162C37.3334 18.162 41.3991 14.0963 41.3991 9.081C41.3991 4.0657 37.3334 0 32.3181 0C27.3028 0 23.2371 4.0657 23.2371 9.081C23.2371 14.0963 27.3028 18.162 32.3181 18.162Z" fill="#0B2A35"/>
<path d="M55.5561 18.162C60.5714 18.162 64.6371 14.0963 64.6371 9.081C64.6371 4.0657 60.5714 0 55.5561 0C50.5408 0 46.4751 4.0657 46.4751 9.081C46.4751 14.0963 50.5408 18.162 55.5561 18.162Z" fill="#2E7DE1"/>
<path d="M78.7929 18.162C83.8082 18.162 87.8739 14.0963 87.8739 9.081C87.8739 4.0657 83.8082 0 78.7929 0C73.7776 0 69.7119 4.0657 69.7119 9.081C69.7119 14.0963 73.7776 18.162 78.7929 18.162Z" fill="#2E7DE1"/>
<path d="M9.081 41.399C14.0963 41.399 18.162 37.3333 18.162 32.318C18.162 27.3027 14.0963 23.237 9.081 23.237C4.0657 23.237 0 27.3027 0 32.318C0 37.3333 4.0657 41.399 9.081 41.399Z" fill="#0B2A35"/>
<path d="M32.3181 41.399C37.3334 41.399 41.3991 37.3333 41.3991 32.318C41.3991 27.3027 37.3334 23.237 32.3181 23.237C27.3028 23.237 23.2371 27.3027 23.2371 32.318C23.2371 37.3333 27.3028 41.399 32.3181 41.399Z" fill="#0B2A35"/>
<path d="M55.5561 41.399C60.5714 41.399 64.6371 37.3333 64.6371 32.318C64.6371 27.3027 60.5714 23.237 55.5561 23.237C50.5408 23.237 46.4751 27.3027 46.4751 32.318C46.4751 37.3333 50.5408 41.399 55.5561 41.399Z" fill="#2E7DE1"/>
<path d="M78.7929 41.399C83.8082 41.399 87.8739 37.3333 87.8739 32.318C87.8739 27.3027 83.8082 23.237 78.7929 23.237C73.7776 23.237 69.7119 27.3027 69.7119 32.318C69.7119 37.3333 73.7776 41.399 78.7929 41.399Z" fill="#2E7DE1"/>
<path d="M9.081 64.637C14.0963 64.637 18.162 60.5713 18.162 55.556C18.162 50.5407 14.0963 46.475 9.081 46.475C4.0657 46.475 0 50.5407 0 55.556C0 60.5713 4.0657 64.637 9.081 64.637Z" fill="#0B2A35"/>
<path d="M32.3181 64.637C37.3334 64.637 41.3991 60.5713 41.3991 55.556C41.3991 50.5407 37.3334 46.475 32.3181 46.475C27.3028 46.475 23.2371 50.5407 23.2371 55.556C23.2371 60.5713 27.3028 64.637 32.3181 64.637Z" fill="#0B2A35"/>
<path d="M55.5561 64.637C60.5714 64.637 64.6371 60.5713 64.6371 55.556C64.6371 50.5407 60.5714 46.475 55.5561 46.475C50.5408 46.475 46.4751 50.5407 46.4751 55.556C46.4751 60.5713 50.5408 64.637 55.5561 64.637Z" fill="#0B2A35"/>
<path d="M78.7929 64.637C83.8082 64.637 87.8739 60.5713 87.8739 55.556C87.8739 50.5407 83.8082 46.475 78.7929 46.475C73.7776 46.475 69.7119 50.5407 69.7119 55.556C69.7119 60.5713 73.7776 64.637 78.7929 64.637Z" fill="#0B2A35"/>
<path d="M9.081 87.874C14.0963 87.874 18.162 83.8083 18.162 78.793C18.162 73.7777 14.0963 69.712 9.081 69.712C4.0657 69.712 0 73.7777 0 78.793C0 83.8083 4.0657 87.874 9.081 87.874Z" fill="#0B2A35"/>
<path d="M32.3181 87.874C37.3334 87.874 41.3991 83.8083 41.3991 78.793C41.3991 73.7777 37.3334 69.712 32.3181 69.712C27.3028 69.712 23.2371 73.7777 23.2371 78.793C23.2371 83.8083 27.3028 87.874 32.3181 87.874Z" fill="#0B2A35"/>
<path d="M55.5561 87.874C60.5714 87.874 64.6371 83.8083 64.6371 78.793C64.6371 73.7777 60.5714 69.712 55.5561 69.712C50.5408 69.712 46.4751 73.7777 46.4751 78.793C46.4751 83.8083 50.5408 87.874 55.5561 87.874Z" fill="#0B2A35"/>
<path d="M78.7929 87.874C83.8082 87.874 87.8739 83.8083 87.8739 78.793C87.8739 73.7777 83.8082 69.712 78.7929 69.712C73.7776 69.712 69.7119 73.7777 69.7119 78.793C69.7119 83.8083 73.7776 87.874 78.7929 87.874Z" fill="#0B2A35"/>
</g>
<defs>
<clipPath id="clip0">
<rect width="87.874" height="87.874" fill="white"/>
</clipPath>
</defs>
</svg>
